X: 184
T: Drummond Castle
R: jig
M: 6/8
L: 1/8
K: Amin
ABA ~a3|{b}a)ge ~g3|~c3 edc|Bdg dBG|
(ABA) ~a3|a(ge) ~g3|1 ege deg|edB AEG:|2 ege deg|edB A2 B||
~c3 edc|~d3 ded|~c3 edc|Bdg dBG|
~c3 edc|deg a2 (a|{b}a)ge deg|1 edB A2 B:|2 edB AEG||

